icon-themes/breeze_svg/cmd/lc_symbolshapes.bracket-pair.svg

<svg viewBox="0 0 24 24" xmlns="http://www.w3.org/2000/svg"><path d="m9 4c-1.104569 0-2 .8954-2 2v2 9 1c0 1.1046.895431 2 2 2h2v-1h-.28125-1.71875c-.552285 0-1-.4477-1-1v-.625-.375-.71875-8.5625-1.09375-.625c0-.5523.447715-1 1-1h2v-1zm4 0v1h2c.552285 0 1 .4477153 1 1v1 .71875 1.28125 9c0 .5523-.447715 1-1 1h-2v1h2c1.104569 0 2-.8954 2-2v-9-2-1c0-1.1045695-.895431-2-2-2z" fill="#4d4d4d"/></svg>

<svg xmlns="http://www.w3.org/2000/svg" viewBox="0 0 24 24">
 <path 
     style="fill:#4d4d4d" 
     d="M 9 4 C 7.895431 4 7 4.8954 7 6 L 7 8 L 7 17 L 7 18 C 7 19.1046 7.895431 20 9 20 L 11 20 L 11 19 L 10.71875 19 L 9 19 C 8.447715 19 8 18.5523 8 18 L 8 17.375 L 8 17 L 8 16.28125 L 8 7.71875 L 8 6.625 L 8 6 C 8 5.4477 8.447715 5 9 5 L 11 5 L 11 4 L 9 4 z M 13 4 L 13 5 L 15 5 C 15.552285 5 16 5.4477153 16 6 L 16 7 L 16 7.71875 L 16 9 L 16 18 C 16 18.5523 15.552285 19 15 19 L 13 19 L 13 20 L 15 20 C 16.104569 20 17 19.1046 17 18 L 17 9 L 17 7 L 17 6 C 17 4.8954305 16.104569 4 15 4 L 13 4 z "
     />
 </svg>
